X: 305613
M: 2/4
L: 1/16
K: D
|: A2 |\
d2dd Adfd | e2ef gege | A2de fdfd | ABAG GFED |\
d2de fdfd | A2ef gege | fadf egce | d2d2d2 :|


